static/assets/template/assets/img/icons/essential/detailed/Sent_Email.svg

<svg height="133" viewBox="0 0 151 133" width="151" xmlns="http://www.w3.org/2000/svg"><g fill="none" fill-rule="evenodd" transform="translate(1 2)"><path d="m63.2 36.9-10.2-9.5c-1.4-1.3-3.6-1.3-4.9 0l-10.1 9.5" fill-rule="nonzero"/><path d="m14.3 58.3-13.4 12.5v55.9c0 1.3 1.1 2.4 2.4 2.4h93c1.3 0 2.4-1.1 2.4-2.4v-55.9l-13.4-12.5" fill-rule="nonzero"/><path d="m51.5 31.7c-1-.9-2.5-.9-3.4 0 0 0-13.8 12.6-45.1 42.1l.4 54.1c0 1.2.2 2 1.5 2h90.9c1.2 0 .8-1.1.8-2.4l.5-53.5c-48.7-47-45.6-42.3-45.6-42.3z" fill-rule="nonzero"/><path d="m98.2 71.1v55.8c0 1-.6 1.8-1.5 2.1-.2.1-.5.1-.8.1h-92.3c-1.3 0-2.3-.1-2.3-1.4v-55.1l2.5.3 44.6 27.7 46.9-28z" fill-rule="nonzero"/><g stroke-linecap="round" stroke-linejoin="round"><path d="m92.6 65.2-40.4-37.8c-1.4-1.3-3.6-1.3-4.9 0l-10.1 9.5" stroke-width="3"/><path d="m29.5 44-28.6 26.8v55.9c0 1.3 1.1 2.4 2.4 2.4h93c1.3 0 2.4-1.1 2.4-2.4v-55.9" stroke-width="3"/><path d="m42.7 96.8-41.8-26" stroke-width="3"/><path d="m26.6 114.3 72-43.5" stroke-width="3"/><path d="m18.3 119.3 2.5-1.5" stroke-width="3"/><g stroke-width="2.3588" transform="translate(44 27)"><path d="m11.8 62.1c-.7-.6-1.4-1.2-2.1-1.8"/><path d="m6.2 56.1c-4.7-6.5-6.8-14.9-5.6-22.8 1.8-12.1 10.2-14.4 14.8-12.4 3.1 1.4 5 5.6 3.4 8.8-3 5.7-14.4 3.2-16.6-6.3-.8-3.5 0-7.4 2.1-10.3 3.5-4.8 9.9-6.4 15.8-7.4 10.5-1.8 23.7-2.6 31 6.9.9 1.2 1.7 2.6 1.7 4.1.1 3.1-3.4 7.6-11.2 5.3-11.4-3.5-14-16.6 1.4-19.5 2.8-.5 7.7-1 13-1.7" stroke-dasharray="5.4283 5.4283"/><path d="m58.5.5c.9-.1 1.8-.3 2.7-.4"/></g></g><g transform="translate(103 15)"><path d="m7.7 15.6-2.8 1.5 1.2-8.3" stroke-linecap="round" stroke-linejoin="round" stroke-width="3"/><path d="m.5.1 13.8 20.5 30.8-17.4z" fill-rule="nonzero"/><g stroke-linecap="round" stroke-linejoin="round" stroke-width="3"><path d="m6.3 8.7 8 11.9 30.8-17.4-44.6-3.1 2.4 3.5"/><path d="m28.7 5.7 15.6-2.1"/><path d="m23.4 6.4.4-.1"/><path d="m6.8 8.6 8.4-1.1"/></g></g><path d="m99.5 7.5c1.5-1 3.8-1.7 6.4-1.7 1.8 0 3.6.3 4.9.9" stroke-linecap="round" stroke-linejoin="round" stroke-width="2.5"/><path d="m99.5 1.7c1.1-.9 2.7-1.5 4.5-1.5 1.3 0 2.5.3 3.5.8" stroke-linecap="round" stroke-linejoin="round" stroke-width="2.5"/></g></svg>

<?xml version="1.0" encoding="UTF-8"?>
<svg width="151px" height="133px" viewBox="0 0 151 133" version="1.1" xmlns="http://www.w3.org/2000/svg" xmlns:xlink="http://www.w3.org/1999/xlink">
    <!-- Generator: Sketch 51.2 (57519) - http://www.bohemiancoding.com/sketch -->
    <title>Sent_Email</title>
    <desc>Created with Sketch.</desc>
    <defs></defs>
    <g id="Page-1" stroke="none" stroke-width="1" fill="none" fill-rule="evenodd">
        <g id="Sent_Email" transform="translate(1.000000, 2.000000)">
            <path d="M63.2,36.9 L53,27.4 C51.6,26.1 49.4,26.1 48.1,27.4 L38,36.9" id="Shape" class="fill-neutral" fill-rule="nonzero"></path>
            <path d="M14.3,58.3 L0.9,70.8 L0.9,126.7 C0.9,128 2,129.1 3.3,129.1 L96.3,129.1 C97.6,129.1 98.7,128 98.7,126.7 L98.7,70.8 L85.3,58.3" id="Shape" class="fill-neutral" fill-rule="nonzero"></path>
            <path d="M51.5,31.7 C50.5,30.8 49,30.8 48.1,31.7 C48.1,31.7 34.3,44.3 3,73.8 L3.4,127.9 C3.4,129.1 3.6,129.9 4.9,129.9 L95.8,129.9 C97,129.9 96.6,128.8 96.6,127.5 L97.1,74 C48.4,27 51.5,31.7 51.5,31.7 Z" id="Shape" class="fill-primary-500" fill-rule="nonzero"></path>
            <path d="M98.2,71.1 L98.2,126.9 C98.2,127.9 97.6,128.7 96.7,129 C96.5,129.1 96.2,129.1 95.9,129.1 L3.6,129.1 C2.3,129.1 1.3,129 1.3,127.7 L1.3,72.6 L3.8,72.9 L48.4,100.6 L95.3,72.6 L98.2,71.1 Z" id="Shape" class="fill-primary-200" fill-rule="nonzero"></path>
            <path d="M92.6,65.2 L52.2,27.4 C50.8,26.1 48.6,26.1 47.3,27.4 L37.2,36.9" id="Shape" class="stroke-primary" stroke-width="3" stroke-linecap="round" stroke-linejoin="round"></path>
            <path d="M29.5,44 L0.9,70.8 L0.9,126.7 C0.9,128 2,129.1 3.3,129.1 L96.3,129.1 C97.6,129.1 98.7,128 98.7,126.7 L98.7,70.8" id="Shape" class="stroke-primary" stroke-width="3" stroke-linecap="round" stroke-linejoin="round"></path>
            <path d="M42.7,96.8 L0.9,70.8" id="Shape" class="stroke-primary" stroke-width="3" stroke-linecap="round" stroke-linejoin="round"></path>
            <path d="M26.6,114.3 L98.6,70.8" id="Shape" class="stroke-primary" stroke-width="3" stroke-linecap="round" stroke-linejoin="round"></path>
            <path d="M18.3,119.3 L20.8,117.8" id="Shape" class="stroke-primary" stroke-width="3" stroke-linecap="round" stroke-linejoin="round"></path>
            <g id="Group" transform="translate(44.000000, 27.000000)" class="stroke-primary-300" stroke-linecap="round" stroke-linejoin="round" stroke-width="2.3588">
                <path d="M11.8,62.1 C11.1,61.5 10.4,60.9 9.7,60.3" id="Shape"></path>
                <path d="M6.2,56.1 C1.5,49.6 -0.6,41.2 0.6,33.3 C2.4,21.2 10.8,18.9 15.4,20.9 C18.5,22.3 20.4,26.5 18.8,29.7 C15.8,35.4 4.4,32.9 2.2,23.4 C1.4,19.9 2.2,16 4.3,13.1 C7.8,8.3 14.2,6.7 20.1,5.7 C30.6,3.9 43.8,3.1 51.1,12.6 C52,13.8 52.8,15.2 52.8,16.7 C52.9,19.8 49.4,24.3 41.6,22 C30.2,18.5 27.6,5.4 43,2.5 C45.8,2 50.7,1.5 56,0.8" id="Shape" stroke-dasharray="5.4283,5.4283"></path>
                <path d="M58.5,0.5 C59.4,0.4 60.3,0.2 61.2,0.1" id="Shape"></path>
            </g>
            <g id="Group" transform="translate(103.000000, 15.000000)">
                <polyline id="Shape" class="stroke-primary" stroke-width="3" stroke-linecap="round" stroke-linejoin="round" points="7.7 15.6 4.9 17.1 6.1 8.8"></polyline>
                <polygon id="Shape" class="fill-primary-200" fill-rule="nonzero" points="0.5 0.1 14.3 20.6 45.1 3.2"></polygon>
                <polyline id="Shape" class="stroke-primary" stroke-width="3" stroke-linecap="round" stroke-linejoin="round" points="6.3 8.7 14.3 20.6 45.1 3.2 0.5 0.1 2.9 3.6"></polyline>
                <path d="M28.7,5.7 L44.3,3.6" id="Shape" class="stroke-primary" stroke-width="3" stroke-linecap="round" stroke-linejoin="round"></path>
                <path d="M23.4,6.4 L23.8,6.3" id="Shape" class="stroke-primary" stroke-width="3" stroke-linecap="round" stroke-linejoin="round"></path>
                <path d="M6.8,8.6 L15.2,7.5" id="Shape" class="stroke-primary" stroke-width="3" stroke-linecap="round" stroke-linejoin="round"></path>
            </g>
            <path d="M99.5,7.5 C101,6.5 103.3,5.8 105.9,5.8 C107.7,5.8 109.5,6.1 110.8,6.7" id="Shape" class="stroke-primary-300" stroke-width="2.5" stroke-linecap="round" stroke-linejoin="round"></path>
            <path d="M99.5,1.7 C100.6,0.8 102.2,0.2 104,0.2 C105.3,0.2 106.5,0.5 107.5,1" id="Shape" class="stroke-primary-300" stroke-width="2.5" stroke-linecap="round" stroke-linejoin="round"></path>
        </g>
    </g>
</svg>
